X:187
T:Banks of The Allan #1, The
C:Joe Buchanan's Scottish Tome - Page 274.1
I:274 1
Z:Carl Allison
R:Jig
L:1/8
M:6/8
K:D
D/E/ | FGF FED | FAA A2d | Bdd Add | Bdd Add |
FGF FED | FAA A2d | BdB AFD | FEE E3 :|
d/e/ | fgf fed | faa a3 | fgf fed | gbb b2a |
fga efg | dff fed | BdB AFD | FEE E3 :|
